src/lib/packages/icons/src/assets/line/books.svg

<svg width="24" height="24" viewBox="0 0 24 24" fill="none" xmlns="http://www.w3.org/2000/svg">
<path d="M22.679 18.611L22.1631 16.1851V16.184V16.183L20.1001 6.47709C20.1001 6.47609 20.1001 6.47504 20.1001 6.47404C20.1001 6.47304 20.0991 6.47199 20.0991 6.47099L19.584 4.04606C19.438 3.36106 19.1291 2.86002 18.6631 2.55802C18.1971 2.25602 17.616 2.17506 16.929 2.32206L14.988 2.73502C14.363 2.86802 13.897 3.15206 13.594 3.54606C13.289 2.72206 12.554 2.25102 11.502 2.25102H9.50195C8.88095 2.25102 8.37895 2.42299 8.00195 2.72599C7.62495 2.42299 7.12295 2.25102 6.50195 2.25102H4.50195C3.09295 2.25102 2.25195 3.09202 2.25195 4.50102V19.501C2.25195 20.91 3.09295 21.751 4.50195 21.751H6.50195C7.12295 21.751 7.62495 21.579 8.00195 21.276C8.37895 21.579 8.88095 21.751 9.50195 21.751H11.502C12.911 21.751 13.752 20.91 13.752 19.501V7.69108L15.843 17.5251C15.843 17.5261 15.843 17.526 15.843 17.527C15.843 17.528 15.844 17.5281 15.844 17.5291L16.3601 19.954C16.5061 20.639 16.815 21.1401 17.281 21.4421C17.596 21.6471 17.9651 21.7491 18.3831 21.7491C18.5821 21.7491 18.7941 21.726 19.0161 21.678L20.957 21.2651C21.643 21.1191 22.1441 20.809 22.4451 20.344C22.7451 19.879 22.825 19.295 22.679 18.611ZM3.75 7.75004H7.25V16.25H3.75V7.75004ZM8.75 7.75004H12.25V16.25H8.75V7.75004ZM9.5 3.75004H11.5C12.089 3.75004 12.25 3.91104 12.25 4.50004V6.25004H8.75V4.50004C8.75 3.91104 8.911 3.75004 9.5 3.75004ZM4.5 3.75004H6.5C7.089 3.75004 7.25 3.91104 7.25 4.50004V6.25004H3.75V4.50004C3.75 3.91104 3.911 3.75004 4.5 3.75004ZM6.5 20.25H4.5C3.911 20.25 3.75 20.089 3.75 19.5V17.75H7.25V19.5C7.25 20.089 7.089 20.25 6.5 20.25ZM11.5 20.25H9.5C8.911 20.25 8.75 20.089 8.75 19.5V17.75H12.25V19.5C12.25 20.089 12.089 20.25 11.5 20.25ZM15.3989 8.23808L18.7881 7.51798L20.54 15.761L17.1521 16.481L15.3989 8.23808ZM15.2981 4.20109L17.24 3.788C17.337 3.767 17.4521 3.75004 17.5601 3.75004C17.6681 3.75004 17.77 3.76698 17.844 3.81498C17.993 3.91198 18.074 4.16309 18.115 4.35709L18.4751 6.05106L15.0859 6.77103L14.7261 5.07707C14.6071 4.51007 14.7291 4.32109 15.2981 4.20109ZM21.1851 19.528C21.0881 19.677 20.837 19.757 20.644 19.799C20.643 19.799 20.6431 19.799 20.6431 19.799L18.7009 20.2121C18.5079 20.2531 18.2449 20.2811 18.0969 20.1851C17.9479 20.0881 17.8669 19.837 17.8259 19.643L17.4661 17.949L20.854 17.229L21.2141 18.923C21.2531 19.117 21.2821 19.378 21.1851 19.528Z" fill="currentColor"/>
</svg>

<svg xmlns="http://www.w3.org/2000/svg" width="24" height="24" fill="none"><path fill="currentColor" d="m22.679 18.611-.516-2.426v-.002L20.1 6.477v-.006l-.516-2.425c-.146-.685-.455-1.186-.92-1.488-.467-.302-1.048-.383-1.735-.236l-1.941.413c-.625.133-1.091.417-1.394.811-.305-.824-1.04-1.295-2.092-1.295h-2c-.621 0-1.123.172-1.5.475-.377-.303-.88-.475-1.5-.475h-2c-1.409 0-2.25.841-2.25 2.25v15c0 1.409.841 2.25 2.25 2.25h2c.621 0 1.123-.172 1.5-.475.377.303.879.475 1.5.475h2c1.409 0 2.25-.841 2.25-2.25V7.691l2.091 9.834v.002l.001.002.516 2.425c.146.685.455 1.186.921 1.488.315.205.684.307 1.102.307.2 0 .411-.023.633-.071l1.941-.413c.686-.146 1.187-.456 1.488-.921.3-.465.38-1.049.234-1.733ZM3.75 7.75h3.5v8.5h-3.5v-8.5Zm5 0h3.5v8.5h-3.5v-8.5Zm.75-4h2c.589 0 .75.161.75.75v1.75h-3.5V4.5c0-.589.161-.75.75-.75Zm-5 0h2c.589 0 .75.161.75.75v1.75h-3.5V4.5c0-.589.161-.75.75-.75Zm2 16.5h-2c-.589 0-.75-.161-.75-.75v-1.75h3.5v1.75c0 .589-.161.75-.75.75Zm5 0h-2c-.589 0-.75-.161-.75-.75v-1.75h3.5v1.75c0 .589-.161.75-.75.75Zm3.899-12.012 3.39-.72 1.751 8.243-3.388.72L15.4 8.238Zm-.1-4.037 1.941-.413c.097-.021.212-.038.32-.038.108 0 .21.017.284.065.149.097.23.348.271.542l.36 1.694-3.39.72-.359-1.694c-.119-.567.003-.756.572-.876Zm5.886 15.327c-.097.149-.348.229-.541.271-.001 0 0 0 0 0l-1.943.413c-.193.041-.456.07-.604-.027-.15-.097-.23-.348-.271-.542l-.36-1.694 3.388-.72.36 1.694c.04.194.068.455-.029.605Z"/></svg>
